icons/Thunder Hail Night--1504960.svg

<svg enable-background="new 0 0 16 16" viewBox="0 0 16 16" xmlns="http://www.w3.org/2000/svg"><path d="m13 11h-5.5c-.276 0-.5-.224-.5-.5s.224-.5.5-.5h5.5c1.103 0 2-.897 2-2s-.897-2-2-2c-.147 0-.297.017-.428.042-.137.024-.28-.008-.392-.091-.112-.084-.184-.211-.197-.35-.208-2.053-1.92-3.601-3.983-3.601-1.703 0-3.221 1.079-3.777 2.684-.085.245-.341.386-.594.321-.023-.005-.089-.005-.129-.005-1.378 0-2.5 1.122-2.5 2.5 0 .393.086.765.257 1.106.124.247.023.547-.224.671s-.547.023-.67-.223c-.241-.482-.363-1.004-.363-1.554 0-1.902 1.525-3.454 3.416-3.499.787-1.81 2.583-3.001 4.584-3.001 2.409 0 4.436 1.688 4.902 4.001 1.748-.036 3.098 1.312 3.098 2.999 0 1.654-1.346 3-3 3z"/><path d="m3.5 16c-.032 0-.063-.003-.095-.009-.235-.046-.405-.252-.405-.491v-2.5h-1.5c-.166 0-.321-.082-.414-.22s-.112-.312-.05-.466l2-5c.089-.224.326-.349.559-.306.235.046.405.252.405.492v2.5h1.5c.166 0 .321.082.414.22s.112.312.05.466l-2 5c-.077.192-.263.314-.464.314zm-1.262-4h1.262c.276 0 .5.224.5.5v.403l.762-1.903h-1.262c-.276 0-.5-.224-.5-.5v-.403z"/><path d="m8.5 16c-.827 0-1.5-.673-1.5-1.5s.673-1.5 1.5-1.5 1.5.673 1.5 1.5-.673 1.5-1.5 1.5zm0-2c-.275 0-.5.225-.5.5s.225.5.5.5.5-.225.5-.5-.225-.5-.5-.5z"/><path d="m12.5 16c-.827 0-1.5-.673-1.5-1.5s.673-1.5 1.5-1.5 1.5.673 1.5 1.5-.673 1.5-1.5 1.5zm0-2c-.275 0-.5.225-.5.5s.225.5.5.5.5-.225.5-.5-.225-.5-.5-.5z"/><path d="m13 6c-.228 0-.448-.025-.654-.073-.27-.063-.436-.333-.372-.602.062-.268.331-.434.601-.372.131.031.275.047.425.047.948 0 1.745-.664 1.949-1.551-.145.034-.296.051-.449.051-1.103 0-2-.897-2-2 0-.153.018-.303.051-.448-.699.162-1.277.695-1.48 1.405-.076.265-.351.416-.618.344-.265-.076-.419-.353-.343-.618.366-1.286 1.555-2.183 2.89-2.183.159 0 .306.012.452.037.182.03.331.157.391.331s.02.366-.105.501c-.156.168-.238.386-.238.631 0 .551.448 1 1 1 .244 0 .463-.082.63-.237.135-.125.327-.165.501-.106s.301.208.332.39c.024.146.037.294.037.453 0 1.654-1.346 3-3 3z"/></svg>

<?xml version="1.0" encoding="utf-8"?>
<!DOCTYPE svg PUBLIC "-//W3C//DTD SVG 1.0//EN" "http://www.w3.org/TR/2001/REC-SVG-20010904/DTD/svg10.dtd">
<svg    fill="#000000" xmlns="http://www.w3.org/2000/svg" xmlns:xlink="http://www.w3.org/1999/xlink" version="1.1" x="0px" y="0px" viewBox="0 0 16 16" style="enable-background:new 0 0 16 16;" xml:space="preserve"><g><path d="M13,11H7.5C7.224,11,7,10.776,7,10.5S7.224,10,7.5,10H13c1.103,0,2-0.897,2-2c0-1.103-0.897-2-2-2   c-0.147,0-0.297,0.017-0.428,0.042c-0.137,0.024-0.28-0.008-0.392-0.091c-0.112-0.084-0.184-0.211-0.197-0.35   C11.775,3.548,10.063,2,8,2C6.297,2,4.779,3.079,4.223,4.684C4.138,4.929,3.882,5.07,3.629,5.005C3.606,5,3.54,5,3.5,5   C2.122,5,1,6.122,1,7.5c0,0.393,0.086,0.765,0.257,1.106c0.124,0.247,0.023,0.547-0.224,0.671C0.786,9.401,0.486,9.3,0.363,9.054   C0.122,8.572,0,8.05,0,7.5c0-1.902,1.525-3.454,3.416-3.499C4.203,2.191,5.999,1,8,1c2.409,0,4.436,1.688,4.902,4.001   C14.65,4.965,16,6.313,16,8C16,9.654,14.654,11,13,11z"></path><path d="M3.5,16c-0.032,0-0.063-0.003-0.095-0.009C3.17,15.945,3,15.739,3,15.5V13H1.5c-0.166,0-0.321-0.082-0.414-0.22   c-0.093-0.138-0.112-0.312-0.05-0.466l2-5c0.089-0.224,0.326-0.349,0.559-0.306C3.83,7.054,4,7.26,4,7.5V10h1.5   c0.166,0,0.321,0.082,0.414,0.22c0.093,0.138,0.112,0.312,0.05,0.466l-2,5C3.887,15.878,3.701,16,3.5,16z M2.238,12H3.5   C3.776,12,4,12.224,4,12.5v0.403L4.762,11H3.5C3.224,11,3,10.776,3,10.5v-0.403L2.238,12z"></path><path d="M8.5,16C7.673,16,7,15.327,7,14.5S7.673,13,8.5,13s1.5,0.673,1.5,1.5S9.327,16,8.5,16z M8.5,14C8.225,14,8,14.225,8,14.5   S8.225,15,8.5,15S9,14.775,9,14.5S8.775,14,8.5,14z"></path><path d="M12.5,16c-0.827,0-1.5-0.673-1.5-1.5s0.673-1.5,1.5-1.5s1.5,0.673,1.5,1.5S13.327,16,12.5,16z M12.5,14   c-0.275,0-0.5,0.225-0.5,0.5s0.225,0.5,0.5,0.5s0.5-0.225,0.5-0.5S12.775,14,12.5,14z"></path></g><path d="M13,6c-0.228,0-0.448-0.025-0.654-0.073c-0.27-0.063-0.436-0.333-0.372-0.602c0.062-0.268,0.331-0.434,0.601-0.372  C12.706,4.984,12.85,5,13,5c0.948,0,1.745-0.664,1.949-1.551C14.804,3.483,14.653,3.5,14.5,3.5c-1.103,0-2-0.897-2-2  c0-0.153,0.018-0.303,0.051-0.448c-0.699,0.162-1.277,0.695-1.48,1.405c-0.076,0.265-0.351,0.416-0.618,0.344  c-0.265-0.076-0.419-0.353-0.343-0.618C10.476,0.897,11.665,0,13,0c0.159,0,0.306,0.012,0.452,0.037  c0.182,0.03,0.331,0.157,0.391,0.331s0.02,0.366-0.105,0.501C13.582,1.037,13.5,1.255,13.5,1.5c0,0.551,0.448,1,1,1  c0.244,0,0.463-0.082,0.63-0.237c0.135-0.125,0.327-0.165,0.501-0.106c0.174,0.059,0.301,0.208,0.332,0.39  C15.987,2.693,16,2.841,16,3C16,4.654,14.654,6,13,6z"></path></svg>
